static/img/kroki/a9ec0ff71305701103acb4a0c07d3ad4.svg

<?xml version="1.0" encoding="us-ascii" standalone="no"?><svg xmlns="http://www.w3.org/2000/svg" xmlns:xlink="http://www.w3.org/1999/xlink" contentStyleType="text/css" height="152px" preserveAspectRatio="none" style="width:262px;height:152px;" version="1.1" viewBox="0 0 262 152" width="262px" zoomAndPan="magnify"><defs/><g><!--class digitalocean_alert_policy--><g id="elem_digitalocean_alert_policy"><rect codeLine="22" fill="#3D176E" height="39.7891" id="digitalocean_alert_policy" rx="2.5" ry="2.5" style="stroke:#000D19;stroke-width:0.5;" width="248" x="7" y="106.79"/><ellipse cx="22" cy="126.6845" fill="#ADD1B2" rx="11" ry="11" style="stroke:#181818;stroke-width:1.0;"/><path d="M24.9688,132.3252 Q24.3906,132.622 23.75,132.7627 Q23.1094,132.9189 22.4063,132.9189 Q19.9063,132.9189 18.5781,131.2783 Q17.2656,129.622 17.2656,126.497 Q17.2656,123.372 18.5781,121.7158 Q19.9063,120.0595 22.4063,120.0595 Q23.1094,120.0595 23.75,120.2158 Q24.4063,120.372 24.9688,120.6689 L24.9688,123.3877 Q24.3438,122.8095 23.75,122.5439 Q23.1563,122.2627 22.5313,122.2627 Q21.1875,122.2627 20.5,123.3408 Q19.8125,124.4033 19.8125,126.497 Q19.8125,128.5908 20.5,129.6689 Q21.1875,130.7314 22.5313,130.7314 Q23.1563,130.7314 23.75,130.4658 Q24.3438,130.1845 24.9688,129.6064 L24.9688,132.3252 Z " fill="#000000"/><text fill="#D9B8FF" font-family="Helvetica" font-size="17" lengthAdjust="spacing" textLength="206" x="41" y="132.5698">digitalocean_alert_policy</text></g><!--class digitalocean_team--><g id="elem_digitalocean_team"><rect codeLine="24" fill="#3D176E" height="39.7891" id="digitalocean_team" rx="2.5" ry="2.5" style="stroke:#000D19;stroke-width:0.5;" width="196" x="33" y="7"/><ellipse cx="48" cy="26.8945" fill="#ADD1B2" rx="11" ry="11" style="stroke:#181818;stroke-width:1.0;"/><path d="M50.9688,32.5352 Q50.3906,32.832 49.75,32.9727 Q49.1094,33.1289 48.4063,33.1289 Q45.9063,33.1289 44.5781,31.4883 Q43.2656,29.832 43.2656,26.707 Q43.2656,23.582 44.5781,21.9258 Q45.9063,20.2695 48.4063,20.2695 Q49.1094,20.2695 49.75,20.4258 Q50.4063,20.582 50.9688,20.8789 L50.9688,23.5977 Q50.3438,23.0195 49.75,22.7539 Q49.1563,22.4727 48.5313,22.4727 Q47.1875,22.4727 46.5,23.5508 Q45.8125,24.6133 45.8125,26.707 Q45.8125,28.8008 46.5,29.8789 Q47.1875,30.9414 48.5313,30.9414 Q49.1563,30.9414 49.75,30.6758 Q50.3438,30.3945 50.9688,29.8164 L50.9688,32.5352 Z " fill="#000000"/><text fill="#D9B8FF" font-family="Helvetica" font-size="17" lengthAdjust="spacing" textLength="154" x="67" y="32.7798">digitalocean_team</text></g><!--link digitalocean_team to digitalocean_alert_policy--><g id="link_digitalocean_team_digitalocean_alert_policy"><path codeLine="26" d="M131,47.22 C131,62.49 131,83.92 131,100.53 " fill="none" id="digitalocean_team-to-digitalocean_alert_policy" style="stroke:#1A83AF;stroke-width:2.0;"/><polygon fill="#1A83AF" points="131,105.41,135,96.41,131,100.41,127,96.41,131,105.41" style="stroke:#1A83AF;stroke-width:2.0;"/></g><!--SRC=[XP1FIyD04CNl_HGBEHSIWwQz235Gz5B4UXCfq-nikdIp6sQdbYX-TnkhiYRzSttlntjlPgqb2gmRRaMDzGh9Z_n6smO8Qf4JkLtXZ2CHAGKgpVhcp5c-2CoXHd6FvWrPbz0ddjUwt5ZqNbm5rXsKcuhSrif3F1DOlxVGSa0L1hpFcKcljep163bTJPJga_tGA9L9TeC3p954-a7YE9R9j8zSh3fxzn-nqEyeal1fSySuc3ce-AREhko8OEJWq5__vCP7a5BRIbm7sjDX4rcaV_fY3TBjEbg1yM6DPoHqt3PO3Ax2wKIgx2ZyS0ekkyy9gIlDO5o9O9TWa7ZPEAFBLdoCFeynZFlupXkguvSeoITfFdiTtvuE_W80]--></g></svg>

<svg xmlns="http://www.w3.org/2000/svg" width="262" height="152" preserveAspectRatio="none" style="width:262px;height:152px"><rect width="248" height="39.789" x="7" y="106.79" fill="#3D176E" rx="2.5" ry="2.5" style="stroke:#000d19;stroke-width:.5"/><circle cx="22" cy="126.684" r="11" fill="#ADD1B2" style="stroke:#181818;stroke-width:1"/><path d="M24.969 132.325q-.578.297-1.219.438-.64.156-1.344.156-2.5 0-3.828-1.64-1.312-1.657-1.312-4.782t1.312-4.781q1.328-1.656 3.828-1.656.703 0 1.344.156.656.156 1.219.453v2.719q-.625-.579-1.219-.844-.594-.281-1.219-.281-1.343 0-2.031 1.078-.688 1.062-.688 3.156 0 2.094.688 3.172.688 1.062 2.031 1.062.625 0 1.219-.265.594-.281 1.219-.86v2.72Z"/><text x="41" y="132.57" fill="#D9B8FF" font-family="Helvetica" font-size="17" textLength="206">digitalocean_alert_policy</text><rect width="196" height="39.789" x="33" y="7" fill="#3D176E" rx="2.5" ry="2.5" style="stroke:#000d19;stroke-width:.5"/><circle cx="48" cy="26.895" r="11" fill="#ADD1B2" style="stroke:#181818;stroke-width:1"/><path d="M50.969 32.535q-.578.297-1.219.438-.64.156-1.344.156-2.5 0-3.828-1.64-1.312-1.657-1.312-4.782t1.312-4.781q1.328-1.656 3.828-1.656.703 0 1.344.156.656.156 1.219.453v2.719q-.625-.578-1.219-.844-.594-.281-1.219-.281-1.343 0-2.031 1.078-.688 1.062-.688 3.156 0 2.094.688 3.172.688 1.062 2.031 1.062.625 0 1.219-.265.594-.281 1.219-.86v2.72Z"/><text x="67" y="32.78" fill="#D9B8FF" font-family="Helvetica" font-size="17" textLength="154">digitalocean_team</text><path fill="none" d="M131 47.22v53.31" style="stroke:#1a83af;stroke-width:2"/><path fill="#1A83AF" d="m131 105.41 4-9-4 4-4-4 4 9z" style="stroke:#1a83af;stroke-width:2"/></svg>
